src/components/Icon/assets/browser-firefox.svg

<svg width="24" height="24" viewBox="0 0 24 24" fill="none" xmlns="http://www.w3.org/2000/svg">
<path fill-rule="evenodd" clip-rule="evenodd" d="M21.659 9.34084C21.6445 9.28661 21.6294 9.23257 21.614 9.17872C21.6117 9.17088 21.6095 9.16302 21.6073 9.15518C21.5927 9.10466 21.5776 9.05431 21.5623 9.00413C21.5589 8.9932 21.5556 8.98228 21.5522 8.97137C21.5373 8.92322 21.522 8.87524 21.5064 8.82741C21.5022 8.81476 21.4981 8.80213 21.4939 8.7895C21.4785 8.74295 21.4628 8.69654 21.4467 8.65029C21.442 8.63676 21.4372 8.62327 21.4324 8.60976C21.4163 8.56415 21.4001 8.51864 21.3833 8.47333C21.3784 8.45992 21.3733 8.44661 21.3683 8.43324C21.3513 8.38771 21.3341 8.34226 21.3164 8.29706C21.3119 8.28533 21.3071 8.2737 21.3025 8.26201C21.2972 8.24858 21.2919 8.23521 21.2865 8.2218C21.2731 8.18836 21.2598 8.15488 21.246 8.12162C21.2441 8.11683 21.242 8.11208 21.24 8.10729C21.1756 7.952 21.1074 7.7987 21.0355 7.64746C21.0306 7.6372 21.0259 7.62687 21.021 7.61663C21.0037 7.58044 20.9858 7.5445 20.968 7.50857C20.9575 7.4873 20.9472 7.46593 20.9365 7.44476C20.9203 7.41241 20.9036 7.38029 20.887 7.34815C20.8743 7.3236 20.8617 7.29902 20.8488 7.2746C20.8329 7.24445 20.8167 7.21448 20.8005 7.18451C20.7863 7.15833 20.7722 7.13216 20.7578 7.10612C20.742 7.07752 20.726 7.04909 20.7099 7.02068C20.6946 6.99352 20.6792 6.96641 20.6636 6.93939C20.6478 6.9121 20.6319 6.88492 20.6159 6.85778C20.5994 6.82987 20.5828 6.80204 20.5661 6.7743C20.5503 6.7482 20.5345 6.72216 20.5185 6.69625C20.5009 6.66765 20.4831 6.6392 20.4652 6.61079C20.4496 6.58593 20.4339 6.56106 20.4181 6.53634C20.3991 6.50687 20.3799 6.47762 20.3607 6.44837C20.3453 6.42497 20.3301 6.40154 20.3145 6.37828C20.2938 6.34739 20.2728 6.31674 20.2518 6.28609C20.2372 6.26476 20.2227 6.24331 20.208 6.22211C20.1842 6.18797 20.16 6.15415 20.1357 6.12029C20.1233 6.10287 20.111 6.08527 20.0984 6.06791C20.0614 6.01687 20.024 5.96615 19.9861 5.91585C19.6966 5.53551 19.381 5.17825 19.0432 4.84598C18.8061 4.60169 18.5543 4.37443 18.2899 4.16413C18.1365 4.03172 17.9768 3.90674 17.8124 3.78822C17.4961 3.55086 17.15 3.33752 16.7729 3.15232C16.6857 3.10692 16.5981 3.06257 16.5098 3.01979C15.7942 2.67309 15.0469 2.39948 14.2747 2.22944C14.1719 2.20681 14.0687 2.1861 13.9652 2.16689C13.4504 2.06876 12.926 2.01271 12.3968 2.00217C12.3223 2.0007 12.2485 2.00002 12.1754 2.00004C11.4763 1.99771 10.7868 2.0678 10.1333 2.20533C8.71261 2.50435 7.46322 3.11772 6.67309 3.88455C6.67425 3.88383 6.67544 3.88315 6.6766 3.88245C6.6753 3.88379 6.67421 3.88491 6.67337 3.88574C6.67514 3.88429 6.67718 3.88261 6.67932 3.88084C6.68345 3.87884 6.6871 3.87645 6.69117 3.87379C7.28229 3.51959 8.0979 3.23261 8.68085 3.08567C8.71301 3.07755 8.74525 3.06985 8.77748 3.06213C8.88698 3.03617 8.99983 3.01151 9.1163 2.98868C9.15227 2.98168 9.18462 2.97555 9.2172 2.96957C11.8009 2.49918 14.556 3.27058 16.4742 5.10576C16.8867 5.50039 17.2565 5.94197 17.5564 6.42834C18.7803 8.41335 18.6645 10.9089 17.7103 12.3807C17.0014 13.474 15.4834 14.4997 14.0671 14.4886C14.0957 14.4901 14.1243 14.4913 14.1528 14.4925C14.1339 14.4921 14.1149 14.4914 14.0959 14.4908C14.0668 14.4896 14.0377 14.4885 14.0085 14.4868C13.3047 14.4445 12.6996 14.2751 12.1938 14.0169C10.002 12.8978 9.67536 10.1099 11.2613 8.76185C10.7346 8.64869 9.74507 8.87023 9.0561 9.89788C8.43802 10.8198 8.47282 12.2443 8.85418 13.2546C8.62224 12.7681 8.45217 12.2734 8.36346 11.6756C7.88477 8.44998 9.97321 5.68436 11.9728 4.87555C11.987 4.86982 12.0011 4.86459 12.0152 4.85907C12.0333 4.85198 12.0514 4.8447 12.0695 4.83794C12.1017 4.82592 12.1338 4.81441 12.166 4.80344C11.7155 4.41088 10.9895 4.18863 10.1475 4.16483C8.98629 4.132 7.60455 4.47687 6.42083 5.27305C6.35017 5.32055 6.28018 5.36956 6.21104 5.4203C6.16832 5.45165 6.12616 5.48359 6.08432 5.51587C6.07117 5.52601 6.0582 5.53635 6.04513 5.54658C6.0163 5.56917 5.98765 5.59191 5.95924 5.61492C5.94445 5.62693 5.92971 5.639 5.91502 5.65111C5.88782 5.67354 5.86089 5.69621 5.83407 5.71905C5.82016 5.73091 5.8062 5.7427 5.79239 5.75465C5.76073 5.78208 5.7294 5.80986 5.69831 5.83787C5.69023 5.84514 5.68199 5.85226 5.67395 5.85958C5.63594 5.89414 5.59841 5.92918 5.56128 5.96457C5.54807 5.97716 5.53512 5.98995 5.52201 6.00262C5.49759 6.02629 5.47326 6.05005 5.44922 6.07407C5.43388 6.0894 5.41867 6.10486 5.40347 6.12033C5.38178 6.14241 5.36027 6.16466 5.33892 6.18705C5.32352 6.20317 5.30811 6.21929 5.29287 6.23559C5.27094 6.25904 5.24929 6.28274 5.2277 6.30649C5.21398 6.32161 5.20009 6.33658 5.18648 6.35182C5.15402 6.38819 5.12195 6.42495 5.09029 6.46204C5.07497 6.48002 5.05996 6.49829 5.0448 6.51641C5.02686 6.53788 5.00892 6.55935 4.99124 6.58104C4.97452 6.60157 4.95802 6.6223 4.94154 6.64303C4.92594 6.66262 4.91045 6.6823 4.89509 6.70209C4.87811 6.7239 4.86123 6.74579 4.84451 6.76784C4.83032 6.78657 4.81634 6.80549 4.80233 6.82438C4.78517 6.84753 4.76791 6.87059 4.75103 6.894C4.74121 6.90757 4.73168 6.92137 4.72198 6.93504C4.68578 6.98594 4.65025 7.0374 4.61537 7.0894C4.60541 7.10426 4.59534 7.11903 4.58548 7.13397C4.56748 7.16125 4.54981 7.1888 4.53217 7.21638C4.52231 7.23182 4.51243 7.24726 4.50268 7.26281C4.4849 7.29112 4.46728 7.31953 4.44988 7.34815C4.44142 7.36203 4.4331 7.37602 4.42472 7.38999C4.4063 7.42073 4.38793 7.45152 4.36995 7.48261C4.36821 7.48562 4.36652 7.48865 4.36478 7.49169C4.31997 7.56942 4.27649 7.6482 4.23443 7.72799C4.21438 7.766 4.19638 7.80127 4.17848 7.83665C4.17322 7.84707 4.16791 7.85746 4.16268 7.8679C4.14538 7.90254 4.12834 7.93735 4.11154 7.97235C4.10683 7.98217 4.10216 7.99204 4.09747 8.00192C4.02068 8.16374 3.94932 8.32935 3.88352 8.49857C3.88129 8.50433 3.87899 8.51008 3.87676 8.51587C3.86149 8.55543 3.84657 8.5952 3.8319 8.63512C3.82901 8.64307 3.82612 8.65099 3.82324 8.65893C3.80838 8.69979 3.79377 8.74078 3.77957 8.78204C3.77913 8.78329 3.77871 8.78459 3.77827 8.78585C3.74712 8.87637 3.71733 8.96772 3.6893 9.0601C3.72473 8.61537 3.83054 8.05462 4.01912 7.43522C4.0203 7.43135 4.02145 7.42752 4.02263 7.42367C4.03201 7.39296 4.04167 7.36207 4.05146 7.33109C4.05386 7.3235 4.05623 7.31594 4.05865 7.30834C4.06764 7.28013 4.07688 7.25175 4.0862 7.22334C4.08963 7.2129 4.09304 7.20251 4.0965 7.19205C4.10522 7.16578 4.11411 7.1394 4.12313 7.11294C4.1275 7.10011 4.13189 7.08726 4.13634 7.07439C4.1448 7.04983 4.1534 7.02521 4.16212 7.00055C4.16741 6.98558 4.17276 6.9706 4.17812 6.95559C4.1864 6.93247 4.1948 6.9093 4.20328 6.88606C4.20941 6.86936 4.21562 6.85264 4.22184 6.83588C4.22998 6.81399 4.23818 6.79204 4.24652 6.77007C4.25347 6.75175 4.26051 6.7334 4.26759 6.71504C4.27559 6.69431 4.28359 6.67356 4.29178 6.65277C4.29956 6.63293 4.3075 6.61304 4.31544 6.59315C4.32328 6.57352 4.3311 6.5539 4.3391 6.53423C4.34776 6.5129 4.3566 6.49153 4.36542 6.47016C4.37306 6.4517 4.38065 6.43327 4.38841 6.41477C4.39806 6.3918 4.40792 6.36878 4.41778 6.34573C4.42512 6.32861 4.43236 6.31151 4.43981 6.29437C4.4505 6.26979 4.46141 6.24513 4.47233 6.22047C4.47933 6.20465 4.48626 6.18884 4.49336 6.173C4.50537 6.14624 4.51764 6.11941 4.52995 6.09259C4.53626 6.0788 4.54246 6.06506 4.54885 6.05127C4.56297 6.02076 4.57742 5.99017 4.59195 5.95961C4.59679 5.94937 4.6015 5.93919 4.60641 5.92898C4.62467 5.89077 4.64326 5.85254 4.66214 5.81427C4.66346 5.81158 4.66473 5.80886 4.66607 5.80617C4.68668 5.76445 4.70763 5.72269 4.72896 5.68086C4.51265 5.79252 4.27787 5.97966 4.044 6.21616C4.02062 6.2398 3.99723 6.26395 3.97389 6.28855C3.48352 6.80539 3.00573 7.52838 2.72011 8.21548C2.23665 9.37863 1.9947 10.7173 2.00009 12.0561C2.00169 12.4547 2.02495 12.8533 2.0706 13.2473C2.07304 13.2681 2.07539 13.2889 2.07775 13.3097C2.08924 13.411 2.10045 13.5119 2.11346 13.6125C2.11438 13.6195 2.1152 13.6266 2.11614 13.6337C2.92123 18.357 7.03358 21.9528 11.9864 21.9528C17.5167 21.9528 22 17.4696 22 11.9392C22 11.0429 21.8818 10.1742 21.6608 9.34758C21.6602 9.34533 21.6596 9.34307 21.659 9.34084Z" fill="#65676A"/>
</svg>

<svg xmlns="http://www.w3.org/2000/svg" width="24" height="24" viewBox="0 0 24 24">
    <path fill="#65676A" fill-rule="evenodd" d="M21.66 9.348l-.001-.007-.045-.162-.007-.024-.045-.15-.01-.034-.046-.144-.012-.037-.047-.14-.015-.04-.049-.137-.015-.04-.052-.136-.014-.035-.016-.04-.04-.1-.006-.015c-.064-.155-.133-.308-.205-.46l-.014-.03c-.017-.037-.035-.072-.053-.108l-.031-.064-.05-.097-.038-.073-.049-.09-.042-.079-.048-.085-.046-.082-.048-.081-.05-.084-.047-.078-.054-.085-.047-.075-.057-.088-.046-.07-.063-.092-.044-.064-.072-.102-.038-.052-.112-.152c-.29-.38-.605-.738-.943-1.07-.237-.244-.489-.472-.753-.682-.154-.132-.313-.257-.478-.376-.316-.237-.662-.45-1.04-.636-.086-.045-.174-.09-.262-.132-.716-.347-1.463-.62-2.235-.79-.103-.023-.206-.044-.31-.063-.515-.098-1.039-.154-1.568-.165L12.175 2c-.699-.002-1.388.068-2.042.205-1.42.3-2.67.913-3.46 1.68l.004-.003-.004.004.006-.005.005-.003-.003.003.01-.007c.591-.354 1.407-.641 1.99-.788l.096-.024c.11-.026.223-.05.34-.073l.003-.001.097-.018c2.584-.47 5.339.3 7.257 2.136.413.394.783.836 1.082 1.322 1.224 1.985 1.109 4.48.154 5.953-.709 1.093-2.227 2.119-3.643 2.108l.086.003-.057-.001-.088-.004c-.703-.043-1.308-.212-1.814-.47-2.192-1.12-2.519-3.907-.933-5.255-.526-.113-1.516.108-2.205 1.136-.618.922-.583 2.346-.202 3.357-.232-.487-.402-.982-.49-1.58-.48-3.225 1.61-5.99 3.609-6.8l.042-.016.054-.021.097-.035c-.45-.392-1.177-.614-2.018-.638-1.162-.033-2.543.312-3.727 1.108l-.21.147-.127.096-.039.03-.086.069-.044.036-.08.068-.043.036-.094.083-.024.022-.113.105-.039.038-.073.071-.046.046-.064.067-.046.049-.065.07-.042.046-.096.11-.045.054-.054.065-.05.062-.046.06c-.017.02-.034.043-.05.065l-.043.056-.051.07-.029.041-.107.154-.03.045-.053.082-.03.047-.052.085-.025.042c-.019.03-.037.062-.055.093l-.005.009c-.045.077-.089.156-.13.236l-.002.003-.055.106-.015.03-.051.105-.015.03c-.076.162-.148.327-.213.497l-.007.017-.045.12-.009.023c-.015.04-.03.082-.043.123l-.002.004-.089.274c.036-.445.142-1.005.33-1.625l.004-.011.028-.093.008-.023.027-.085.01-.03.027-.08.013-.039.026-.073.016-.045.025-.07.019-.05.025-.066.02-.055.025-.062.023-.06.024-.059.026-.064.023-.055.03-.07.022-.05.032-.075.021-.047.037-.08.019-.042.043-.091.014-.031.056-.115.004-.008c.02-.042.042-.083.063-.125-.216.112-.451.299-.685.535l-.07.073c-.49.516-.968 1.24-1.254 1.926-.483 1.164-.725 2.502-.72 3.841.002.399.025.797.07 1.191l.008.063c.011.101.022.202.035.303l.003.02c.805 4.724 4.918 8.32 9.87 8.32C17.516 21.953 22 17.47 22 11.939c0-.896-.118-1.765-.34-2.591"/>
</svg>
